Numix-GalliumOS/22/emblems/emblem-camera.svg

<?xml version="1.0" encoding="UTF-8" standalone="no"?>
<svg
   xmlns:dc="http://purl.org/dc/elements/1.1/"
   xmlns:cc="http://creativecommons.org/ns#"
   xmlns:rdf="http://www.w3.org/1999/02/22-rdf-syntax-ns#"
   xmlns:svg="http://www.w3.org/2000/svg"
   xmlns="http://www.w3.org/2000/svg"
   xmlns:sodipodi="http://sodipodi.sourceforge.net/DTD/sodipodi-0.dtd"
   xmlns:inkscape="http://www.inkscape.org/namespaces/inkscape"
   width="22"
   height="22"
   viewBox="0 0 22 22"
   id="svg2"
   version="1.1"
   inkscape:version="0.91 r13725"
   sodipodi:docname="emblem-camera.svg">
  <metadata
     id="metadata22">
    <rdf:RDF>
      <cc:Work
         rdf:about="">
        <dc:format>image/svg+xml</dc:format>
        <dc:type
           rdf:resource="http://purl.org/dc/dcmitype/StillImage" />
      </cc:Work>
    </rdf:RDF>
  </metadata>
  <defs
     id="defs20" />
  <sodipodi:namedview
     pagecolor="#ffffff"
     bordercolor="#666666"
     borderopacity="1"
     objecttolerance="10"
     gridtolerance="10"
     guidetolerance="10"
     inkscape:pageopacity="0"
     inkscape:pageshadow="2"
     inkscape:window-width="1366"
     inkscape:window-height="704"
     id="namedview18"
     showgrid="false"
     inkscape:zoom="1"
     inkscape:cx="12.208436"
     inkscape:cy="8.765505"
     inkscape:window-x="0"
     inkscape:window-y="27"
     inkscape:window-maximized="1"
     inkscape:current-layer="svg2">
    <inkscape:grid
       type="xygrid"
       id="grid4162" />
  </sodipodi:namedview>
  <path
     style="fill:#fff;stroke:#777;stroke-width:.5"
     d="M 25.930955 35.186401 C 25.930955 42.09259 20.443729 47.693673 13.677926 47.693673 C 6.912124 47.693673 1.424898 42.09259 1.424898 35.186401 C 1.424898 28.280211 6.912124 22.679128 13.677926 22.679128 C 20.443729 22.679128 25.930955 28.280211 25.930955 35.186401 Z "
     transform="matrix(.73324 0 0 .71833 .97084 -14.27552)"
     id="path4" />
  <path
     style="opacity:1;fill:#427fec;fill-opacity:1;stroke:none;stroke-width:2;stroke-linecap:round;stroke-linejoin:round;stroke-miterlimit:4;stroke-dasharray:none;stroke-opacity:1"
     d="M 7.5,5 C 7.223,5 7,5.223 7,5.5 7,5.777 7.223,6 7.5,6 L 6,6 C 5.446,6 5,6.446 5,7 l 0,8 c 0,0.554 0.446,1 1,1 l 10,0 c 0.554,0 1,-0.446 1,-1 L 17,7 C 17,6.446 16.554,6 16,6 L 9.5,6 C 9.777,6 10,5.777 10,5.5 10,5.223 9.777,5 9.5,5 Z m 7.699219,2 0.601562,0 C 15.911581,7 16,7.0884186 16,7.1992188 l 0,0.6015624 C 16,7.9115814 15.911581,8 15.800781,8 L 15.199219,8 C 15.088419,8 15,7.9115814 15,7.8007812 L 15,7.1992188 C 15,7.0884186 15.088419,7 15.199219,7 Z M 11,8 c 1.656854,0 3,1.3431458 3,3 0,1.656854 -1.343146,3 -3,3 C 9.3431458,14 8,12.656854 8,11 8,9.3431458 9.3431458,8 11,8 Z"
     id="rect4164"
     inkscape:connector-curvature="0"
     sodipodi:nodetypes="sscsssssssscsssssssssssssssss" />
  <g
     style="fill:#fff"
     id="g12" />
</svg>

<svg xmlns="http://www.w3.org/2000/svg" viewBox="0 0 22 22">
 <path d="m 25.931 35.19 c 0 6.906 -5.487 12.507 -12.253 12.507 c -6.766 0 -12.253 -5.601 -12.253 -12.507 c 0 -6.906 5.487 -12.507 12.253 -12.507 c 6.766 0 12.253 5.601 12.253 12.507 Z" transform="matrix(.73324 0 0 .71833 .97084 -14.27552)" style="fill:#fff;stroke:#777;stroke-width:0.5"/>
 <path d="m 7.5 5 c -0.277 0 -0.5 0.223 -0.5 0.5 0 0.277 0.223 0.5 0.5 0.5 l -1.5 0 c -0.554 0 -1 0.446 -1 1 l 0 8 c 0 0.554 0.446 1 1 1 l 10 0 c 0.554 0 1 -0.446 1 -1 l 0 -8 c 0 -0.554 -0.446 -1 -1 -1 l -6.5 0 c 0.277 0 0.5 -0.223 0.5 -0.5 0 -0.277 -0.223 -0.5 -0.5 -0.5 m 5.699 2 0.602 0 c 0.111 0 0.199 0.088 0.199 0.199 l 0 0.602 c 0 0.111 -0.088 0.199 -0.199 0.199 l -0.602 0 c -0.111 0 -0.199 -0.088 -0.199 -0.199 l 0 -0.602 c 0 -0.111 0.088 -0.199 0.199 -0.199 m -4.199 1 c 1.657 0 3 1.343 3 3 0 1.657 -1.343 3 -3 3 c -1.657 0 -3 -1.343 -3 -3 0 -1.657 1.343 -3 3 -3" style="fill:#427fec;opacity:1;fill-opacity:1;stroke:none"/>
</svg>
